icons/cylinder.svg

<svg width="24" height="24" viewBox="0 0 24 24" fill="none" xmlns="http://www.w3.org/2000/svg">
<path fill-rule="evenodd" clip-rule="evenodd" d="M4.25 6.5C4.25 6.39585 4.3079 6.19232 4.64849 5.90812C4.98486 5.62743 5.51644 5.34102 6.23921 5.08592C7.67798 4.57812 9.71468 4.25 12 4.25C14.2853 4.25 16.322 4.57812 17.7608 5.08592C18.4836 5.34102 19.0151 5.62743 19.3515 5.90812C19.6921 6.19232 19.75 6.39585 19.75 6.5C19.75 6.60415 19.6921 6.80768 19.3515 7.09188C19.0151 7.37257 18.4836 7.65898 17.7608 7.91408C16.322 8.42188 14.2853 8.75 12 8.75C9.71468 8.75 7.67798 8.42188 6.23921 7.91408C5.51644 7.65898 4.98486 7.37257 4.64849 7.09188C4.3079 6.80768 4.25 6.60415 4.25 6.5ZM19.75 8.64235C19.3184 8.90528 18.8127 9.13351 18.26 9.32856C16.6224 9.90655 14.4091 10.25 12 10.25C9.5909 10.25 7.3776 9.90655 5.73998 9.32856C5.18733 9.13351 4.68163 8.90528 4.25 8.64235V17.5C4.25 17.6207 4.31393 17.8297 4.64958 18.1117C4.98393 18.3925 5.5131 18.6771 6.23501 18.9295C7.67222 19.432 9.70908 19.75 12 19.75C14.2909 19.75 16.3278 19.432 17.765 18.9295C18.4869 18.6771 19.0161 18.3925 19.3504 18.1117C19.6861 17.8297 19.75 17.6207 19.75 17.5V8.64235ZM21.25 17.5V6.5C21.25 5.77572 20.8322 5.19004 20.3125 4.75641C19.7887 4.31927 19.0755 3.95923 18.26 3.67144C16.6224 3.09345 14.4091 2.75 12 2.75C9.5909 2.75 7.3776 3.09345 5.73998 3.67144C4.92455 3.95923 4.21133 4.31927 3.68746 4.75641C3.1678 5.19004 2.75 5.77572 2.75 6.5V17.5C2.75 18.2293 3.16107 18.8203 3.68479 19.2602C4.20982 19.7012 4.9244 20.0604 5.73999 20.3455C7.37778 20.918 9.59092 21.25 12 21.25C14.4091 21.25 16.6222 20.918 18.26 20.3455C19.0756 20.0604 19.7902 19.7012 20.3152 19.2602C20.8389 18.8203 21.25 18.2293 21.25 17.5Z" fill="black"/>
</svg>

<svg xmlns="http://www.w3.org/2000/svg" fill="none" viewBox="0 0 24 24">
  <path fill="#000" fill-rule="evenodd" d="M4.25 6.5c0-.104.058-.308.398-.592.337-.28.868-.567 1.591-.822C7.678 4.578 9.715 4.25 12 4.25s4.322.328 5.76.836c.724.255 1.255.541 1.591.822.341.284.399.488.399.592 0 .104-.058.308-.398.592-.337.28-.868.567-1.591.822-1.439.508-3.476.836-5.761.836s-4.322-.328-5.76-.836c-.724-.255-1.255-.541-1.592-.822-.34-.284-.398-.488-.398-.592Zm15.5 2.142a7.997 7.997 0 0 1-1.49.687c-1.638.578-3.85.921-6.26.921-2.41 0-4.622-.343-6.26-.921a7.999 7.999 0 0 1-1.49-.687V17.5c0 .12.064.33.4.612.334.28.863.565 1.585.818 1.437.502 3.474.82 5.765.82 2.29 0 4.328-.318 5.765-.82.722-.253 1.251-.538 1.585-.818.336-.282.4-.491.4-.612V8.642Zm1.5 8.858v-11c0-.724-.418-1.31-.938-1.744-.523-.437-1.236-.797-2.052-1.085-1.638-.578-3.85-.921-6.26-.921-2.41 0-4.622.343-6.26.921-.815.288-1.529.648-2.053 1.085-.52.434-.937 1.02-.937 1.744v11c0 .73.411 1.32.935 1.76.525.441 1.24.8 2.055 1.085 1.638.573 3.85.905 6.26.905 2.41 0 4.622-.332 6.26-.904.816-.286 1.53-.645 2.055-1.086.524-.44.935-1.03.935-1.76Z" clip-rule="evenodd"/>
</svg>
